!!!OTL: Amerikanisches Lied (2-25), S. 63
!!!id: K1113
**kern
*clefG2
*k[f#]
*G:
{16d
16d
8d
8d
=1
4.g
8B
4.e
8d
=2
4d
4c}
8r
=3
{16a
16a
8a
8b
=4
4.a
8g
4.f#
8e
=5
4e
4d}
8r
=6
{16d
16d
8d
8d
=7
4g
4g
4a
4d
=8
4.b}
=9
{8a
8g
8f#
8e
8cc
=10
2b
2a
=11
2g}
8r
==
*-
!!!minrhy: 16
!!!meters: 4/4 ]  ZZ[4
!!!cut: Amerikanisches Lied (2-25), S. 63
!!!reg: Luxemburg
!!!trd: KINTZELE, Guillaume: An der Ucht, Bd. 2, Luxemburg 1927
!!!rhy1: XXX_X_  X__.X_X__.X_  X__X__0_
!!!rhy2: XXX_X_  X__.X_X__.X_  X__X__0_
!!!key: K1113  16  G 4/4 ]  ZZ[4
!!!mod: HEPTATONIK IONISCH]  AMBITUS[9b
!!!kad: -4-531
!!!akz: 1-6-5_2-7-6_123_1321_
!!!fot: 'a__as'b__c__
!!!for: 'a__a__b__c__
!!!fok: '^d_\__/__\__
!! PHRAS[AUFTAKTIG]
!!!fkt: Abschieds-, Trennungslied
!! KINTZELE
!! PR[28] 2K[4] 2G[7] 3K[4] 3G[4] 4A[4] 4Ü[0] 5A[3] 6K[0] 6G[4]
!! 7K[0] 7G[0] 8A[0] MEHR[0] SI[31] ABS[71] SR[11] SP[20]
!! ST[21] 2k[8] 2g[10] 3k[4] 3g[11] 4d[3] 4ü[0] 5d[3] 6k[0] 6g[1]
!! 7k[0] 7g[0] 8d[0] mehr[0] si[41] dm[-10] sr[18] sp[23]
!! 1F[23] 2F[26] 3F[25] 4F[0] LF[0] 2P[23] 3P[3] 4P[0] TRI[0] DF[5] AB[77]
!! TF[0] U3K[0] U3[1] U4[0] U4Ü[0] U5[6] U6K[0] U6[22] U7K[0] U7[3]
!! N1[13] N2K[0] N2[7] N3K[0] N3[31] N4[10] N4Ü[0] N5[3] N6K[0] N6[6]
!!!n7k: 0] N7[0] O1[0] O2K[0] O2[0] O3K[0] O3[0] HÖ[0
